src/topics/icons/autoprefixer.svg

<svg height="193" preserveAspectRatio="xMidYMid" viewBox="0 0 256 193" width="256" xmlns="http://www.w3.org/2000/svg"><path d="m62.2594273 192.231662h30.9024893l9.5434154-32.720283h47.71708l9.543416 32.720283h32.720282l-64.531668-192.231662zm65.8950147-108.6131612 16.360141 52.7160112h-32.720283zm127.699992 70.8939462-3.181138-13.179003-67.25836-6.816725 8.63452 23.176867zm-185.414936-18.177935-67.25835938 6.816726-3.18113862 13.179003 62.2594273 3.181138z" fill="#dd3835"/></svg>

<?xml version="1.0" encoding="UTF-8" standalone="no"?>
<svg width="256px" height="193px" viewBox="0 0 256 193" version="1.1" xmlns="http://www.w3.org/2000/svg" xmlns:xlink="http://www.w3.org/1999/xlink" preserveAspectRatio="xMidYMid">
	<g fill="#DD3835">
		<path d="M62.2594273,192.231662 L93.1619166,192.231662 L102.705332,159.511379 L150.422412,159.511379 L159.965828,192.231662 L192.68611,192.231662 L128.154442,0 L62.2594273,192.231662 L62.2594273,192.231662 Z M128.154442,83.6185008 L144.514583,136.334512 L111.7943,136.334512 L128.154442,83.6185008 L128.154442,83.6185008 Z M255.854434,154.512447 L252.673296,141.333444 L185.414936,134.516719 L194.049456,157.693586 L255.854434,154.512447 L255.854434,154.512447 Z M70.439498,136.334512 L3.18113862,143.151238 L0,156.330241 L62.2594273,159.511379 L70.439498,136.334512 L70.439498,136.334512 Z"></path>
	</g>
</svg>
